X:1
T:What a Reaping!
T:What a Reaping!
T:Russell Kelso Carter
T:Russell Kelso Carter, 1899
T:Public Domain Courtesy of the Cyber Hymnal™
T:Public Domain Courtesy of the Cyber Hymnal™
C:Russell Kelso Carter
Z:Public Domain
Z:Courtesy of the Cyber Hymnal™
%%score ( 1 2 ) ( 3 4 )
L:1/8
Q:1/4=105
M:4/4
K:Ab
V:1 treble 
V:2 treble 
V:3 bass 
V:4 bass 
V:1
 [CA][CA] | [CA]2 [CA]2 [EG]2 [DF]2 | [CE]2 [CA]4 [CA][CA] | [CA]2 [EA]2 [EA]2 [=Dc]2 | %4
w: 1.~Oh! the|sow- ing time seems|wea- ry And full|oft the work- ers|
w: 2.~In the|sor- row and the|suf- fering, When each|breath is but a|
w: 3.~When our|hearts are strained to|break- ing, Com- fort|oth- er suf- ferers|
w: 4.~For the|love of Christ is|flow- ing In a|stream that’s ne- ver|
 [EB]6 [EB][Ec] | [Ed]2 d2 [Gc]2 [GB]2 | (e2 c2) [EA]2 [EA][EB] | [Ec]2 [EA]2 [FA]2 [EG]2 | %8
w: cry, To the|Lord who rules the|har- * vest, For the|reap- ing by and|
w: sigh; Though we|sow in tears, re-|mem- * ber There’s a|reap- ing by and|
w: nigh; And our|har- vest will be|dou- * bled In the|reap- ing by and|
w: dry; He will|wa- ter all our|sow- * ing, For the|reap- ing by and|
 [EA]6 ||"^Refrain" [CE][CE] | [Ec]4 [CA]4 | (d2 c2) [EB]2 [GB][GB] | %12
w: by.||||
w: by.|What a|reap- ing,|reap- * ing, What a|
w: by.||||
w: by.||||
 [Ac][Ac][Ac][EB] [EA]2 [=DG][DA] | [EB]6 EE | [CA][CA][CA][DB] [Ec]2 [DB][CA] | %15
w: |||
w: reap- ing it will be by and|by. Ev- ery|sor- row we have known, Ev- ery|
w: |||
w: |||
 [EB][EB][EB][Ec] [Ed]2 [Ac][Ad] | [Ae][Ae]A[AB] [Ac]2 [GB][GB] | [EA]6 |] %18
w: |||
w: tear that we have sown, What a|reap- ing it will be by and|by!|
w: |||
w: |||
V:2
 x2 | x8 | x8 | x8 | x8 | x2 (EF) x4 | E4 x4 | x8 | x6 || x2 | x8 | E4 x4 | x8 | x6 EE | x8 | x8 | %16
 x2 A x5 | x6 |] %18
V:3
 [A,,A,][A,,A,] | [A,,A,]2 [A,,A,]2 [A,,A,]2 [A,,A,]2 | [A,,A,]2 [A,,E,]4 [A,,E,][A,,E,] | %3
w: ~ ~|~ ~ ~ ~|~ ~ ~ ~|
 [A,,A,]2 [C,A,]2 [C,A,]2 [B,,A,]2 | [E,G,]6 [E,G,][E,A,] | [E,B,]2 [E,B,]2 [E,E]2 [E,D]2 | %6
w: ~ ~ ~ ~|~ ~ ~|~ ~ ~ ~|
 ([A,C]2 [A,,A,]2) [A,,C]2 [C,A,][B,,G,] | [A,,A,]2 [C,A,]2 [D,D]2 [E,B,]2 | [A,,C]6 || %9
w: ~ * ~ ~ ~|~ ~ ~ ~|~|
 [A,,A,][A,,A,] | [A,,A,][A,,A,][A,,A,][A,,A,] [A,,A,][A,,A,][A,,A,][A,,A,] | %11
w: What a|reap- ing, what a reap- ing, what a|
 [E,B,][E,B,][E,A,][E,A,] [E,G,]2 [E,E][E,E] | [A,E][A,E][A,E][A,D] [A,C]2 [B,,B,][B,,A,] | %13
w: reap- ing that will be, * *||
 G,4 [C,A,][B,,G,] x2 | [A,,A,][A,,A,][A,,A,][A,,A,] [A,,A,]2 [A,,A,][A,,A,] | %15
w: ||
 [E,G,][E,G,][E,G,][E,A,] [E,B,]2 A,[A,B,] | [A,C][A,C][F,=D][F,D] [E,E]2 [E,_D][E,D] | [A,,C]6 |] %18
w: |||
V:4
 x2 | x8 | x8 | x8 | x8 | x8 | x8 | x8 | x6 || x2 | x8 | x8 | x8 | (E,2 E,E,E,D,) x2 | x8 | %15
 x6 A, x | x8 | x6 |] %18

